Mono Glyph Icons/actions/unfilled/stroke-join-round.svg

<svg height="48" viewBox="0 -960 960 960" width="48" xmlns="http://www.w3.org/2000/svg"><path d="m141.44-771c-12.96 0-23.94-4.687-32.94-14.06s-13.5-20.54-13.5-33.5 4.62-24.107 13.86-33.44 20.24-14 33-14 23.807 4.747 33.14 14.24 14 20.807 14 33.94c0 12.847-4.687 23.86-14.06 33.04-9.373 9.187-20.54 13.78-33.5 13.78zm169.38 0c-12.847 0-23.863-4.687-33.05-14.06-9.18-9.373-13.77-20.54-13.77-33.5s4.687-24.107 14.06-33.44 20.54-14 33.5-14 24.107 4.747 33.44 14.24 14 20.807 14 33.94c0 12.847-4.747 23.86-14.24 33.04-9.493 9.187-20.807 13.78-33.94 13.78zm507 507c-12.847 0-23.86-4.687-33.04-14.06-9.187-9.373-13.78-20.54-13.78-33.5s4.687-24.107 14.06-33.44 20.54-14 33.5-14 24.107 4.747 33.44 14.24 14 20.807 14 33.94c0 12.847-4.747 23.863-14.24 33.05-9.493 9.18-20.807 13.77-33.94 13.77zm0 169c-12.847 0-23.86-4.62-33.04-13.86-9.187-9.24-13.78-20.24-13.78-33s4.687-23.807 14.06-33.14 20.54-14 33.5-14 24.107 4.687 33.44 14.06 14 20.54 14 33.5-4.747 23.94-14.24 32.94-20.807 13.5-33.94 13.5zm-46.82-386v-160c0-36-12.667-66.667-38-92s-56-38-92-38h-160c-13.167 0-24.29-4.56-33.37-13.68-9.087-9.113-13.63-20.25-13.63-33.41 0-13.153 4.543-24.427 13.63-33.82 9.08-9.393 20.203-14.09 33.37-14.09h172c59.28 0 109.6 20.68 150.96 62.04s62.04 91.68 62.04 150.96v172c0 13.167-4.753 24.29-14.26 33.37-9.513 9.087-20.847 13.63-34 13.63-13.16 0-24.24-4.543-33.24-13.63-9-9.08-13.5-20.203-13.5-33.37z"/><path d="m171.356-171.38h419.562v-419.53h-419.562zm-38.58 76.38c-10.577 0-19.516-3.72-26.813-10.93-7.314-7.25-10.963-16.25-10.963-26.86v-495.91c0-10.59 3.649-19.44 10.963-26.84 7.297-7.23 16.236-10.94 26.813-10.94h495.916c10.577 0 19.532 3.71 26.829 10.94 7.298 7.4 10.947 16.25 10.947 26.84v495.91c0 10.61-3.649 19.61-10.947 26.86-7.297 7.21-16.252 10.93-26.829 10.93z" stroke-width=".05"/></svg>

<?xml version="1.0" encoding="utf-8"?>
<svg height="48" viewBox="0 -960 960 960" width="48" xmlns="http://www.w3.org/2000/svg">
  <path d="M 141.44 -771 C 128.48 -771 117.5 -775.687 108.5 -785.06 C 99.5 -794.433 95 -805.6 95 -818.56 C 95 -831.52 99.62 -842.667 108.86 -852 C 118.1 -861.333 129.1 -866 141.86 -866 C 154.62 -866 165.667 -861.253 175 -851.76 C 184.333 -842.267 189 -830.953 189 -817.82 C 189 -804.973 184.313 -793.96 174.94 -784.78 C 165.567 -775.593 154.4 -771 141.44 -771 Z M 310.82 -771 C 297.973 -771 286.957 -775.687 277.77 -785.06 C 268.59 -794.433 264 -805.6 264 -818.56 C 264 -831.52 268.687 -842.667 278.06 -852 C 287.433 -861.333 298.6 -866 311.56 -866 C 324.52 -866 335.667 -861.253 345 -851.76 C 354.333 -842.267 359 -830.953 359 -817.82 C 359 -804.973 354.253 -793.96 344.76 -784.78 C 335.267 -775.593 323.953 -771 310.82 -771 Z M 817.82 -264 C 804.973 -264 793.96 -268.687 784.78 -278.06 C 775.593 -287.433 771 -298.6 771 -311.56 C 771 -324.52 775.687 -335.667 785.06 -345 C 794.433 -354.333 805.6 -359 818.56 -359 C 831.52 -359 842.667 -354.253 852 -344.76 C 861.333 -335.267 866 -323.953 866 -310.82 C 866 -297.973 861.253 -286.957 851.76 -277.77 C 842.267 -268.59 830.953 -264 817.82 -264 Z M 817.82 -95 C 804.973 -95 793.96 -99.62 784.78 -108.86 C 775.593 -118.1 771 -129.1 771 -141.86 C 771 -154.62 775.687 -165.667 785.06 -175 C 794.433 -184.333 805.6 -189 818.56 -189 C 831.52 -189 842.667 -184.313 852 -174.94 C 861.333 -165.567 866 -154.4 866 -141.44 C 866 -128.48 861.253 -117.5 851.76 -108.5 C 842.267 -99.5 830.953 -95 817.82 -95 Z M 771 -481 L 771 -641 C 771 -677 758.333 -707.667 733 -733 C 707.667 -758.333 677 -771 641 -771 L 481 -771 C 467.833 -771 456.71 -775.56 447.63 -784.68 C 438.543 -793.793 434 -804.93 434 -818.09 C 434 -831.243 438.543 -842.517 447.63 -851.91 C 456.71 -861.303 467.833 -866 481 -866 L 653 -866 C 712.28 -866 762.6 -845.32 803.96 -803.96 C 845.32 -762.6 866 -712.28 866 -653 L 866 -481 C 866 -467.833 861.247 -456.71 851.74 -447.63 C 842.227 -438.543 830.893 -434 817.74 -434 C 804.58 -434 793.5 -438.543 784.5 -447.63 C 775.5 -456.71 771 -467.833 771 -481 Z M 171.356 -171.38 L 590.918 -171.38 L 590.918 -590.91 L 171.356 -590.91 Z M 132.776 -95 C 122.199 -95 113.26 -98.72 105.963 -105.93 C 98.649 -113.18 95 -122.18 95 -132.79 L 95 -628.7 C 95 -639.29 98.649 -648.14 105.963 -655.54 C 113.26 -662.77 122.199 -666.48 132.776 -666.48 L 628.692 -666.48 C 639.269 -666.48 648.224 -662.77 655.521 -655.54 C 662.819 -648.14 666.468 -639.29 666.468 -628.7 L 666.468 -132.79 C 666.468 -122.18 662.819 -113.18 655.521 -105.93 C 648.224 -98.72 639.269 -95 628.692 -95 Z"/>
</svg>
